X: 05003
T: AMY'S JIG
C: Bob McQuillen 13 Aug'80
B: Bob's Note Book 05 #3
%R: jig
Z: 2020 John Chambers <jc:trillian.mit.edu>
M: 6/8
L: 1/8
K: D	% and Bm
AG \
| FAF EFG | FDF EDE | FAd ede | fdf edc \
| BGB dcB | AFA dcB | AdB AFD | GAB ECA, |
| FAF EFG | FDF EDE | FAd ede | fdf edc \
| BdB AdA | GAB AFD | EFG Ade | fdd d ||
|: fe \
| dcd Bde | fdB dcB | Acd efg | aec ABc |\
| dcd Bdf | gfg ebb | fdf ece | dBB B :|
%%begintext align
%% Amy Bicknell is
%% another member of that great Francestown family
%% I think so much of. I sure hope you like your tune, Amy!
%%endtext

%%sep 1 1 500

%%sep 1 1 500

